svgs/picpay.svg

<svg width="24" height="24" viewBox="0 0 24 24" fill="none" xmlns="http://www.w3.org/2000/svg">
<path d="M15.3472 4.18988V9.84262H21V4.18988H15.3472ZM16.2892 5.13188H20.058V8.90063H16.2892V5.13188ZM17.2313 6.07388V7.95863H19.116V6.07388H17.2313ZM5.8275 7.01588V9.39713H8.3595C9.966 9.39713 10.878 10.1771 10.878 11.6014C10.878 13.0616 9.966 13.8596 8.3595 13.8596H5.82675V9.39713H3V19.8101H5.82675V16.2401H8.50425C11.754 16.2401 13.6155 14.4761 13.6155 11.5001C13.6155 8.67188 11.754 7.01663 8.505 7.01663L5.8275 7.01588Z" fill="black"/>
</svg>

<svg xmlns="http://www.w3.org/2000/svg" width="24" height="24" fill="none" viewBox="0 0 24 24"><path fill="#000" d="M15.347 4.19v5.653H21V4.19h-5.653m.942.942h3.769V8.9h-3.769V5.13m.942.942v1.885h1.885V6.074h-1.885m-11.404.942v2.381H8.36c1.606 0 2.518.78 2.518 2.204 0 1.46-.912 2.259-2.518 2.259H5.827V9.397H3V19.81h2.827v-3.57h2.677c3.25 0 5.112-1.764 5.112-4.74 0-2.828-1.862-4.483-5.111-4.483l-2.678-.001Z"/></svg>
